X: 23068
T: Lath' A Siubhal Sleibh  Dhomh
R: reel
M: 4/4
K: Fmajor
E|F<D d>e d>c A z/ B/|A<D G>F E2 z E|F<D d>e f>e d z/ e/|c<G A>c d2 z e|
f>ed>A fA A z/ c|d<D G>F E2 z e|f>ed>e f>e d z/ e/|c<G A>cd2 z||

